packages/icon/src/svg/logout.icon.svg

<svg viewBox="0 0 24 24" xmlns="http://www.w3.org/2000/svg"><path d="M14 9h-2.001L12 5H4v14h7.997l.001-4H14v4c0 1.103-.897 2-2 2H4c-1.104 0-2-.897-2-2V5c0-1.104.896-2 2-2h8c1.103 0 2 .896 2 2v4zm2.293-.293l1.414-1.414L22.414 12l-4.707 4.707-1.414-1.414L18.586 13H10v-2h8.586l-2.293-2.293z" /></svg>

<?xml version="1.0" encoding="UTF-8"?>
<svg width="24px" height="24px" viewBox="0 0 24 24" version="1.1" xmlns="http://www.w3.org/2000/svg" xmlns:xlink="http://www.w3.org/1999/xlink">
    <!-- Generator: Sketch 46.1 (44463) - http://www.bohemiancoding.com/sketch -->
    <title>Icon/logout.icon</title>
    <desc>Created with Sketch.</desc>
    <defs>
        <path d="M14,9 L11.9991429,9 L12,5 L4,5 L4,19 L11.997,19 L11.9978571,15 L14,15 L14,19 C14,20.103 13.103,21 12,21 L4,21 C2.896,21 2,20.103 2,19 L2,5 C2,3.896 2.896,3 4,3 L12,3 C13.103,3 14,3.896 14,5 L14,9 Z M16.293,8.707 L17.707,7.293 L22.414,12 L17.707,16.707 L16.293,15.293 L18.586,13 L10,13 L10,11 L18.586,11 L16.293,8.707 Z" id="path-1"></path>
    </defs>
    <g id="Symbols" stroke="none" stroke-width="1" fill="none" fill-rule="evenodd">
        <g id="Icon/logout">
            <mask id="mask-2" fill="white">
                <use xlink:href="#path-1"></use>
            </mask>
            <use id="Combined-Shape" fill="#000000" fill-rule="nonzero" xlink:href="#path-1"></use>
            <g id="Color/Neutral/White" mask="url(#mask-2)" fill="#FFFFFF">
                <rect id="222222-Fill" x="0" y="0" width="24" height="24"></rect>
            </g>
        </g>
    </g>
</svg>
